src/assets/icons/ic-history-version.svg

<svg width="24" height="24" viewBox="0 0 24 24" fill="none" xmlns="http://www.w3.org/2000/svg">
  <path fill-rule="evenodd" clip-rule="evenodd"
    d="M12 2C6.47715 2 2 6.47715 2 12C2 17.5228 6.47715 22 12 22C12.3308 22 12.6579 21.9839 12.9806 21.9525L12.8837 20.9572C12.5932 20.9855 12.2985 21 12 21C7.02944 21 3 16.9706 3 12C3 7.02944 7.02944 3 12 3C12.2985 3 12.5932 3.01449 12.8837 3.04276L12.9806 2.04746C12.6579 2.01607 12.3308 2 12 2ZM14.6139 20.6148L14.9038 21.5719C15.5363 21.3803 16.1422 21.1277 16.7148 20.821L16.2427 19.9395C15.7275 20.2154 15.1825 20.4425 14.6139 20.6148ZM17.7092 18.9577L18.344 19.7304C18.8501 19.3146 19.3146 18.8501 19.7304 18.344L18.9577 17.7092C18.5833 18.1649 18.1649 18.5833 17.7092 18.9577ZM19.9395 16.2426L20.821 16.7148C21.1277 16.1422 21.3803 15.5363 21.5719 14.9038L20.6148 14.6139C20.4425 15.1825 20.2154 15.7275 19.9395 16.2426ZM20.9572 12.8837L21.9525 12.9805C21.9839 12.6579 22 12.3308 22 12C22 11.6692 21.9839 11.3421 21.9525 11.0194L20.9572 11.1163C20.9855 11.4068 21 11.7015 21 12C21 12.2985 20.9855 12.5932 20.9572 12.8837ZM20.6148 9.38613L21.5719 9.09617C21.3803 8.46374 21.1277 7.8578 20.821 7.28519L19.9395 7.75735C20.2154 8.27253 20.4425 8.81749 20.6148 9.38613ZM18.9577 6.2908L19.7304 5.65597C19.3146 5.1499 18.8501 4.68539 18.344 4.2696L17.7092 5.04225C18.1649 5.4167 18.5833 5.83505 18.9577 6.2908ZM16.2427 4.06053L16.7148 3.17901C16.1422 2.87231 15.5363 2.61974 14.9038 2.42813L14.6139 3.38517C15.1825 3.55745 15.7275 3.78459 16.2427 4.06053ZM12.5 11.7929V6H11.5V12.2071L15.6464 16.3536L16.3536 15.6464L12.5 11.7929Z"
    fill="#5A5A5C" />
</svg>

<svg width="24" height="24" xmlns="http://www.w3.org/2000/svg">
  <path fill-rule="evenodd" clip-rule="evenodd"
    d="M12 2C6.477 2 2 6.477 2 12s4.477 10 10 10c.33 0 .658-.016.98-.047l-.096-.996a9 9 0 110-17.914l.097-.996C12.658 2.017 12.33 2 12 2zm2.614 18.615l.29.957a9.935 9.935 0 001.81-.751l-.471-.882a8.944 8.944 0 01-1.63.676zm3.095-1.657l.635.772c.506-.415.97-.88 1.386-1.386l-.772-.635a9.06 9.06 0 01-1.249 1.249zm2.23-2.715l.882.472c.307-.573.56-1.179.75-1.811l-.956-.29a8.94 8.94 0 01-.675 1.629zm1.018-3.36l.995.098a10.12 10.12 0 000-1.962l-.995.097a9.111 9.111 0 010 1.768zm-.342-3.497l.957-.29a9.938 9.938 0 00-.751-1.81l-.882.471c.276.516.503 1.06.676 1.63zm-1.657-3.095l.772-.635c-.415-.506-.88-.97-1.386-1.386l-.635.772a9.06 9.06 0 011.249 1.249zm-2.715-2.23l.472-.882a9.936 9.936 0 00-1.811-.75l-.29.956a8.94 8.94 0 011.629.676zM12.5 11.793V6h-1v6.207l4.146 4.147.708-.708-3.854-3.853z" />
</svg>
